!! 00007] TT[TB
!! Eigene Aufnahme
!!!OTL: Gusu fengguang(Da jiulianhuan)
!!!ARE: Asia, China,ÿJiangsu, Suzhou
!! Ethnic Group: Han
!! III, 496
!!!SCT: C0169D
!!!YEM: Copyright 1995, estate of Helmut Schaffrath.
**kern
*ICvox
*Ivox
*M2/4
*k[f#c#]
*D:
{8.b
16a
8f#
16e
16f#
=1
4.a
8b
=2
8dd
8b
16aa
16ff#
16ee
16ff#
=3
2dd}
=4
{16ff#
16b
16dd
16ee
16ff#
16ee
16aa
16ff#
=5
16ee
8ff#
16ee
16dd
16b
8a
=6
16ff#
16ee
16dd
16b
16b
16a
16a
16f#
=7
2a}
=8
{16ff#
8ff#
16ee
16dd
16ee
16ff#
16aa
=9
16ee
16ee
16ff#
16ee
16dd
16ee
16b
16a
=10
16.f#
32a
16f#
16a
16b
16a
16b
16dd
=11
4a}
{8a
16a
16f#
=12
16aa
16ff#
16ff#
16ee
8dd
16ee
16dd
=13
8b
8dd
16f#
16a
16b
16a
=14
16a
8f#
16e
4d}
=15
{16.f#
32a
16f#
16a
16b
16a
16dd
16b
=16
4a
8a
16a
16f#}
=17
{16aa
16ff#
16ff#
16ee
8dd
16ee
16dd
=18
8b
8dd
16f#
16a
16b
16a
=19
8.aa
16ff#
8ee
8b
=20
[2dd
=21
2dd]}
==
!!!AGN: Xiaodiao, Shidiao, Jiandianhua diao, Matou diao
!! Hier sind viele Weisen zusammengetragen. Wird von Streich-, Matouqin)
!!    und Zupfinstrumenten begleitet. Die Saengerin imitiert die
!!    Zwischenspiele. Charakter der Lokaloper. Saengerin: Huang Bai
!!    +++Dieses Lied wurde GETEILT!! Der 2.,3.,4. Teil folgt unter gleicher
!!    Signatur. Einige Verzierungen. Vor- und Zwischenspiele weggelassen.
!!!ONB: ESAC (Essen Associative Code) Database: CHINA
!!!AMT: simple duple
!!!AIN: vox
!!!EED: Helmut Schaffrath
!!!EEV: 1.0
*-
!!!ONB: Tied note syntax fixed by Craig Sapp, 2004/05/03/
